X:14
T:Berks of Abbergelede. VWMLa.014
T:Birks of Abergeldie,aka. VWMLa.014
R:Reel
S:Anon. MS, late 18thC, Vaughan Williams Mem. Library
N:Version in Aird is in Gmaj, and has 3 parts..
O:England;Yorkshire
Z:vmp/efdss.Simon Wilson. Reviewed PJH 2008.
M:C
L:1/8
Q:2/4=90
K:F
F2Ac f2ed|f2ed efga|\
F2Ac fgag|fdcA G2C2:|
|:FGAF cFAF|cFAF (d/c/B/A/)G2|\
F>GA>c fgag|fdcA G2C2:|

